X: 15387
T: Glass Of Beer, The
R: reel
M: 4/4
K: Eminor
GA|BE E2 BEdE|BE E2 A2 GA|BE E2 B3A|GBdB A2 GA|
BE E2 BEdE|BE E2 A2 GA|BE E2 B3A|GBdB A2 BA||
G3A B3A|GABG AGED|G3A B3A|GBdB A2 BA|
G3A B3A|GABG AGED|G3A B3A|GBdB A2 GA||

